;FLAVOR:Marlin
;TIME:2697
;Filament used: 2.37525m, 0m
;Layer height: 0.2
;MINX:5.195
;MINY:10.727
;MINZ:0.3
;MAXX:211.16
;MAXY:197.885
;MAXZ:3.3
;Generated with Cura_SteamEngine master
T0
M140 S45
M105
M190 S45
M104 S220
M105
M109 S220
M82 ;absolute extrusion mode
G21 ;metric values
G90 ;absolute positioning
M82 ;set extruder to absolute mode
M107 ;start with the fan off
G28 X0 Y0 ;move X/Y to min endstops
G28 Z0 ;move Z to min endstops
G1 Z15.0 F9000 ;move the platform down 15mm
G92 E0 ;zero the extruded length
G1 F200 E15 ;extrude 15mm of feed stock
G92 E0 ;zero the extruded length again
G1 F9000
T0 ;Start with Rear Extruder
;Put printing message on LCD screen
M117 Printing...
G92 E0
G92 E0
G1 F900 E-3
;LAYER_COUNT:16
;LAYER:0
M107
M204 S1000
M205 X6 Y6
G0 F2400 X33.104 Y51.228 Z0.3
M205 X5 Y5
;TYPE:SKIRT
G1 F900 E0
G1 F1200 X33.649 Y50.894 E0.03189
G1 X33.974 Y50.73 E0.05005
G1 X36.403 Y49.465 E0.18668
G1 X38.801 Y48.129 E0.32364
G1 X41.152 Y46.729 E0.46015
G1 X43.461 Y45.265 E0.59655
G1 X45.722 Y43.74 E0.73261
G1 X47.968 Y42.132 E0.87042
G1 X50.138 Y40.481 E1.00645
G1 X52.278 Y38.759 E1.14349
G1 X54.335 Y37.003 E1.27843
G1 X56.379 Y35.156 E1.41587
G1 X58.381 Y33.241 E1.55408
G1 X60.304 Y31.296 E1.69054
G1 X62.151 Y29.316 E1.82563
G1 X63.957 Y27.269 E1.96182
G1 X65.711 Y25.165 E2.09848
G1 X67.427 Y22.982 E2.23701
G1 X68.6 Y21.412 E2.33479
G1 X68.922 Y20.974 E2.36191
G1 X69.359 Y20.44 E2.39633
G1 X69.675 Y20.118 E2.41884
G1 X70.278 Y19.585 E2.45899
G1 X70.717 Y19.228 E2.48722
G1 X70.916 Y19.084 E2.49948
G1 X71.633 Y18.606 E2.54247
G1 X72.181 Y18.269 E2.57456
G1 X72.846 Y17.933 E2.61174
G1 X72.98 Y17.871 E2.6191
G1 X73.48 Y17.653 E2.64631
G1 X73.653 Y17.583 E2.65563
G1 X74.239 Y17.369 E2.68675
G1 X74.73 Y17.218 E2.71238
G1 X75.252 Y17.075 E2.73938
G1 X75.836 Y16.949 E2.76919
G1 X76.411 Y16.859 E2.79822
G1 X76.959 Y16.789 E2.82578
G1 X77.432 Y16.755 E2.84944
G1 X78.408 Y16.744 E2.89814
G1 X78.884 Y16.76 E2.9219
G1 X79.455 Y16.809 E2.95049
G1 X79.862 Y16.861 E2.97096
G1 X80.455 Y16.961 E3.00097
G1 X81.043 Y17.092 E3.03102
G1 X81.852 Y17.324 E3.07301
G1 X83.316 Y17.793 E3.1497
G1 X83.819 Y17.963 E3.17619
G1 X86.446 Y18.771 E3.31331
G1 X89.073 Y19.497 E3.44929
G1 X91.722 Y20.149 E3.58539
G1 X94.43 Y20.738 E3.72365
G1 X97.095 Y21.234 E3.85889
G1 X99.795 Y21.66 E3.99526
G1 X102.53 Y22.013 E4.13285
G1 X105.235 Y22.285 E4.26848
G1 X107.981 Y22.482 E4.40583
G1 X110.695 Y22.6 E4.54136
G1 X113.449 Y22.642 E4.67877
G1 X116.201 Y22.606 E4.81608
G1 X118.901 Y22.495 E4.9509
G1 X120.768 Y22.354 E5.04431
G1 X120.868 Y22.354 E5.0493
G1 X122.528 Y22.24 E5.13231
G1 X123.11 Y22.215 E5.16137
G1 X123.381 Y22.215 E5.1749
G1 X124.732 Y22.273 E5.24236
G1 X126.205 Y22.386 E5.31606
G1 X128.969 Y22.559 E5.45423
G1 X131.687 Y22.652 E5.58991
G1 X134.438 Y22.669 E5.72716
G1 X137.156 Y22.607 E5.8628
G1 X139.906 Y22.468 E6.00017
G1 X142.617 Y22.254 E6.13584
G1 X145.353 Y21.96 E6.27313
G1 X148.08 Y21.588 E6.41044
G1 X150.765 Y21.144 E6.54621
G1 X153.432 Y20.626 E6.68176
G1 X156.118 Y20.024 E6.81909
G1 X158.773 Y19.351 E6.95574
G1 X161.406 Y18.602 E7.09231
G1 X164.033 Y17.775 E7.22971
G1 X166.607 Y16.884 E7.3656
G1 X169.184 Y15.908 E7.50308
G1 X171.702 Y14.872 E7.63892
G1 X175.137 Y13.324 E7.82689
G1 X178.818 Y11.578 E8.03015
G1 X179.509 Y11.264 E8.06802
G1 X179.996 Y11.083 E8.09394
G1 X180.85 Y10.862 E8.13795
G1 X181.25 Y10.807 E8.15809
G1 X181.794 Y10.749 E8.18539
G1 X182.407 Y10.727 E8.21599
G1 X182.675 Y10.735 E8.22937
G1 X183.435 Y10.789 E8.26738
G1 X184.168 Y10.902 E8.30438
G1 X184.803 Y11.058 E8.337
G1 X185.378 Y11.239 E8.36708
G1 X185.962 Y11.478 E8.39856
G1 X186.52 Y11.75 E8.42953
G1 X186.966 Y11.999 E8.45501
G1 X187.534 Y12.376 E8.48902
G1 X187.94 Y12.708 E8.51519
G1 X188.418 Y13.197 E8.5493
G1 X188.756 Y13.625 E8.57651
G1 X189.101 Y14.172 E8.60878
G1 X189.239 Y14.423 E8.62307
G1 X189.605 Y15.166 E8.66439
G1 X210.337 Y58.85 E11.07678
G1 X210.638 Y59.509 E11.11292
G1 X210.927 Y60.292 E11.15456
G1 X211.077 Y60.936 E11.18755
G1 X211.136 Y61.356 E11.20871
G1 X211.16 Y61.906 E11.23618
G1 X211.133 Y62.499 E11.26579
G1 X211.128 Y62.559 E11.2688
G1 X211.038 Y63.092 E11.29577
G1 X210.893 Y63.654 E11.32472
G1 X210.731 Y64.15 E11.35075
G1 X210.532 Y64.666 E11.37835
G1 X209.884 Y66.237 E11.46313
G1 X209.237 Y67.735 E11.54454
G1 X208.788 Y68.732 E11.59909
G1 X207.825 Y70.715 E11.70907
G1 X207.353 Y71.654 E11.7615
G1 X206.252 Y73.679 E11.8765
G1 X205.783 Y74.515 E11.92432
G1 X204.711 Y76.294 E12.02794
G1 X203.85 Y77.664 E12.10867
G1 X202.944 Y79.023 E12.19016
G1 X201.838 Y80.608 E12.28658
G1 X200.783 Y82.04 E12.37532
G1 X200.162 Y82.858 E12.42656
G1 X200.029 Y83.025 E12.43721
G1 X198.752 Y84.604 E12.53852
G1 X198.088 Y85.401 E12.59028
G1 X196.679 Y86.994 E12.69638
G1 X195.999 Y87.743 E12.74685
G1 X195.539 Y88.227 E12.78016
G1 X194.245 Y89.56 E12.87285
G1 X193.693 Y90.113 E12.91183
G1 X193.311 Y90.479 E12.93822
G1 X191.881 Y91.823 E13.03613
G1 X191.178 Y92.467 E13.0837
G1 X189.478 Y93.93 E13.19559
G1 X188.57 Y94.686 E13.25454
G1 X186.823 Y96.055 E13.36527
G1 X186.039 Y96.652 E13.41443
G1 X184.425 Y97.804 E13.51336
G1 X182.957 Y98.809 E13.60212
G1 X181.594 Y99.691 E13.68312
G1 X180.119 Y100.604 E13.76966
G1 X178.523 Y101.534 E13.86182
G1 X177.558 Y102.077 E13.91706
G1 X175.601 Y103.103 E14.0273
G1 X174.69 Y103.563 E14.07822
G1 X172.648 Y104.519 E14.1907
G1 X171.638 Y104.972 E14.24593
G1 X171.444 Y105.055 E14.25646
G1 X169.669 Y105.789 E14.35228
G1 X168.349 Y106.308 E14.42305
G1 X166.411 Y107.005 E14.5258
G1 X165.393 Y107.355 E14.5795
G1 X162.89 Y108.133 E14.71027
G1 X160.832 Y108.787 E14.818
G1 X158.252 Y109.684 E14.95428
G1 X155.686 Y110.657 E15.09119
G1 X153.169 Y111.695 E15.22702
G1 X150.675 Y112.805 E15.36322
G1 X148.189 Y113.998 E15.50079
G1 X145.751 Y115.254 E15.63761
G1 X143.364 Y116.571 E15.77362
G1 X141.017 Y117.953 E15.90951
G1 X138.676 Y119.423 E16.04742
G1 X136.425 Y120.926 E16.18245
G1 X134.161 Y122.533 E16.32097
G1 X131.991 Y124.167 E16.45649
G1 X129.839 Y125.885 E16.59387
G1 X127.781 Y127.626 E16.72835
G1 X125.716 Y129.475 E16.86664
G1 X123.74 Y131.347 E17.00244
G1 X121.8 Y133.294 E17.13956
G1 X119.915 Y135.293 E17.27664
G1 X118.104 Y137.328 E17.41255
G1 X116.339 Y139.426 E17.54933
G1 X114.642 Y141.566 E17.68559
G1 X112.984 Y143.78 E17.82359
G1 X111.414 Y146.006 E17.95949
G1 X109.917 Y148.262 E18.09456
G1 X108.454 Y150.608 E18.2325
G1 X107.071 Y152.972 E18.36914
G1 X105.76 Y155.364 E18.50523
G1 X104.278 Y158.282 E18.66851
G1 X103.894 Y159.067 E18.71211
G1 X102.921 Y160.919 E18.81648
G1 X102.341 Y161.986 E18.87707
G1 X101.251 Y163.847 E18.98467
G1 X100.649 Y164.841 E19.04264
G1 X99.443 Y166.704 E19.15336
G1 X98.899 Y167.518 E19.20221
G1 X97.588 Y169.358 E19.31492
G1 X96.908 Y170.279 E19.37204
G1 X96.724 Y170.517 E19.38705
G1 X95.487 Y172.088 E19.48681
G1 X94.734 Y173.013 E19.54631
G1 X93.366 Y174.599 E19.65081
G1 X92.628 Y175.428 E19.70618
G1 X91.094 Y177.053 E19.81767
G1 X90.377 Y177.789 E19.86893
G1 X88.763 Y179.352 E19.98102
G1 X87.997 Y180.07 E20.0334
G1 X87.818 Y180.231 E20.04541
G1 X86.347 Y181.53 E20.14332
G1 X85.562 Y182.204 E20.19494
G1 X83.849 Y183.588 E20.30481
G1 X82.855 Y184.363 E20.36769
G1 X81.067 Y185.674 E20.4783
G1 X80.246 Y186.258 E20.52857
G1 X78.365 Y187.511 E20.64133
G1 X77.369 Y188.153 E20.70045
G1 X75.539 Y189.253 E20.80697
G1 X74.46 Y189.877 E20.86916
G1 X72.604 Y190.882 E20.97446
G1 X71.609 Y191.4 E21.03042
G1 X69.818 Y192.267 E21.12969
G1 X68.336 Y192.95 E21.2111
G1 X66.631 Y193.682 E21.30368
G1 X65.534 Y194.132 E21.36283
G1 X63.554 Y194.877 E21.46837
G1 X62.519 Y195.25 E21.52326
G1 X60.415 Y195.935 E21.63365
G1 X59.412 Y196.247 E21.68606
G1 X57.261 Y196.843 E21.79742
G1 X56.204 Y197.119 E21.85192
G1 X56.003 Y197.167 E21.86223
G1 X54.095 Y197.602 E21.95986
G1 X53.572 Y197.714 E21.98654
G1 X53.368 Y197.751 E21.99689
G1 X52.641 Y197.858 E22.03355
G1 X51.966 Y197.885 E22.06725
G1 X51.232 Y197.828 E22.10398
G1 X50.55 Y197.672 E22.13889
G1 X50.242 Y197.58 E22.15492
G1 X49.75 Y197.385 E22.18133
G1 X49.214 Y197.109 E22.2114
G1 X48.762 Y196.83 E22.2379
G1 X48.681 Y196.776 E22.24276
G1 X8.447 Y168.919 E24.68422
G1 X7.858 Y168.497 E24.72037
G1 X7.466 Y168.179 E24.74555
G1 X7.222 Y167.961 E24.76187
G1 X6.834 Y167.545 E24.79025
G1 X6.487 Y167.099 E24.81845
G1 X6.147 Y166.558 E24.85032
G1 X5.84 Y165.888 E24.88709
G1 X5.661 Y165.417 E24.91223
G1 X5.503 Y164.905 E24.93896
G1 X5.358 Y164.271 E24.97141
G1 X5.272 Y163.734 E24.99854
G1 X5.232 Y163.358 E25.01741
G1 X5.195 Y162.71 E25.04979
G1 X5.2 Y162.192 E25.07563
G1 X5.244 Y161.603 E25.1051
G1 X5.347 Y160.93 E25.13907
G1 X5.502 Y160.282 E25.17231
G1 X5.688 Y159.658 E25.20479
G1 X5.948 Y159.03 E25.2387
G1 X6.221 Y158.518 E25.26765
G1 X6.679 Y157.824 E25.30913
G1 X9.065 Y154.377 E25.51829
G1 X10.587 Y152.108 E25.6546
G1 X12.054 Y149.786 E25.79162
G1 X13.453 Y147.424 E25.92858
G1 X14.775 Y145.041 E26.06454
G1 X16.021 Y142.635 E26.19972
G1 X17.245 Y140.101 E26.34012
G1 X18.34 Y137.661 E26.47354
G1 X19.409 Y135.087 E26.6126
G1 X20.373 Y132.559 E26.74758
G1 X21.28 Y129.972 E26.88435
G1 X22.107 Y127.373 E27.02042
G1 X22.867 Y124.734 E27.15743
G1 X23.551 Y122.079 E27.29421
G1 X24.163 Y119.391 E27.43175
G1 X24.696 Y116.686 E27.5693
G1 X25.146 Y114.015 E27.70443
G1 X25.524 Y111.311 E27.84065
G1 X25.822 Y108.624 E27.97552
G1 X26.081 Y105.559 E28.12898
G1 X26.156 Y105.01 E28.15662
G1 X26.172 Y104.91 E28.16168
G1 X26.284 Y104.286 E28.19331
G1 X26.41 Y103.683 E28.22404
G1 X26.712 Y102.415 E28.28907
G1 X26.851 Y101.867 E28.31728
G1 X27.442 Y99.216 E28.45278
G1 X27.976 Y96.461 E28.59279
G1 X28.411 Y93.82 E28.72632
G1 X28.78 Y91.098 E28.86337
G1 X29.075 Y88.352 E29.00115
G1 X29.287 Y85.646 E29.13657
G1 X29.424 Y82.897 E29.27389
G1 X29.484 Y80.178 E29.40957
G1 X29.466 Y77.427 E29.54682
G1 X29.371 Y74.707 E29.68261
G1 X29.198 Y71.963 E29.81978
G1 X28.947 Y69.219 E29.95725
G1 X28.623 Y66.532 E30.09227
G1 X28.182 Y63.584 E30.24099
G1 X28.095 Y63.052 E30.26788
G1 X28.045 Y62.683 E30.28646
G1 X27.98 Y62.059 E30.31776
G1 X27.953 Y61.361 E30.35261
G1 X27.964 Y60.66 E30.38758
G1 X28.01 Y60.011 E30.42004
G1 X28.076 Y59.456 E30.44793
G1 X28.163 Y58.896 E30.4762
G1 X28.237 Y58.549 E30.4939
G1 X28.5 Y57.582 E30.5439
G1 X28.655 Y57.098 E30.56926
G1 X28.858 Y56.572 E30.59738
G1 X29.036 Y56.161 E30.61973
G1 X29.323 Y55.558 E30.65305
G1 X29.516 Y55.198 E30.67343
G1 X29.798 Y54.732 E30.7006
G1 X29.871 Y54.618 E30.70735
G1 X30.216 Y54.099 E30.73845
G1 X30.605 Y53.584 E30.77064
G1 X31.039 Y53.076 E30.80398
G1 X31.477 Y52.597 E30.83636
G1 X32.031 Y52.075 E30.87434
G1 X32.135 Y51.984 E30.88123
G1 X32.645 Y51.56 E30.91432
G1 X33.104 Y51.228 E30.94258
M205 X6 Y6
G1 F900 E27.94258
;MESH:3dcase.stl
G0 F2400 X36.654 Y56.503
G0 X36.002 Y55.406
G0 X35.132 Y56.089
G0 X34.449 Y56.871
G0 X33.881 Y57.748
G0 X33.452 Y58.689
G0 X33.158 Y59.692
G0 X33.016 Y60.72
G0 X33.021 Y61.753
G0 X33.177 Y62.785
G0 X33.458 Y63.727
G0 X40.55 Y77.708
G0 X38.823 Y92.577
G0 X32.89 Y101.408
G0 X32.245 Y102.454
G0 X31.736 Y103.558
G0 X31.359 Y104.728
G0 X31.128 Y105.923
G0 X31.042 Y107.142
G0 X31.102 Y108.361
G0 X31.308 Y109.566
G0 X31.658 Y110.737
G0 X32.144 Y111.854
G0 X32.652 Y112.75
G0 X39.729 Y123.01
G0 X38.727 Y135.376
G0 X30.137 Y144.331
G0 X21.812 Y146.287
G0 X21.023 Y146.657
G0 X20.335 Y147.165
G0 X10.488 Y161.227
G0 X10.242 Y162.72
G0 X10.681 Y164.3
G0 X51.797 Y192.769
G0 X55.258 Y192.139
G0 X58.232 Y191.318
G0 X61.168 Y190.361
G0 X64.054 Y189.274
G0 X66.891 Y188.054
G0 X69.667 Y186.71
G0 X72.38 Y185.239
G0 X75.024 Y183.648
G0 X77.592 Y181.938
G0 X80.082 Y180.114
G0 X82.485 Y178.178
G0 X84.799 Y176.136
G0 X87.016 Y173.991
G0 X89.135 Y171.746
G0 X91.149 Y169.408
G0 X93.056 Y166.981
G0 X94.85 Y164.471
G0 X96.529 Y161.881
G0 X98.088 Y159.218
G0 X99.525 Y156.487
G0 X100.837 Y153.695
G0 X102.02 Y150.845
G0 X103.073 Y147.944
G0 X103.993 Y144.999
G0 X104.78 Y142.014
G0 X105.429 Y138.997
G0 X105.942 Y135.953
G0 X106.315 Y132.89
G0 X106.55 Y129.814
G0 X106.644 Y126.729
G0 X106.598 Y123.645
G0 X106.412 Y120.564
G0 X106.087 Y117.492
G0 X105.559 Y114.224
G0 X119.328 Y102.801
M205 X5 Y5
;TYPE:WALL-INNER
G1 F900 E30.94258
G1 F1200 X112.581 Y108.528 E31.3841
G1 X106.402 Y113.78 E31.78869
G1 X106.949 Y117.388 E31.97075
G1 X107.277 Y120.482 E32.12597
G1 X107.464 Y123.564 E32.28002
G1 X107.512 Y126.75 E32.43899
G1 X107.416 Y129.869 E32.59467
G1 X107.179 Y132.971 E32.74988
G1 X106.799 Y136.106 E32.90743
G1 X106.281 Y139.166 E33.06226
G1 X105.625 Y142.213 E33.21776
G1 X104.881 Y145.044 E33.3638
G1 X104.769 Y145.429 E33.3838
G1 X103.897 Y148.22 E33.52968
G1 X102.836 Y151.147 E33.68501
G1 X101.632 Y154.042 E33.84143
G1 X100.31 Y156.861 E33.99677
G1 X98.865 Y159.608 E34.15163
G1 X97.291 Y162.299 E34.30716
G1 X95.566 Y164.961 E34.46541
G1 X93.723 Y167.54 E34.62356
G1 X91.81 Y169.973 E34.77797
G1 X89.769 Y172.339 E34.93386
G1 X87.619 Y174.615 E35.09006
G1 X85.374 Y176.785 E35.24583
G1 X83.055 Y178.832 E35.40016
G1 X80.64 Y180.778 E35.55489
G1 X80.563 Y180.838 E35.55976
G1 X78.076 Y182.659 E35.71354
G1 X75.431 Y184.418 E35.87202
G1 X72.786 Y186.009 E36.02601
G1 X70.054 Y187.487 E36.18098
G1 X67.268 Y188.836 E36.33541
G1 X64.351 Y190.089 E36.4938
G1 X61.453 Y191.182 E36.64832
G1 X58.483 Y192.147 E36.80412
G1 X55.465 Y192.981 E36.96033
G1 X52.533 Y193.65 E37.11037
G1 X52.135 Y193.701 E37.13039
G1 X51.832 Y193.677 E37.14555
G1 X51.54 Y193.594 E37.1607
G1 X51.234 Y193.437 E37.17785
G1 X10.349 Y165.128 E39.65885
G1 X10.045 Y164.862 E39.679
G1 X9.873 Y164.632 E39.69333
G1 X9.693 Y164.241 E39.7148
G1 X9.459 Y163.403 E39.75821
G1 X9.383 Y162.525 E39.80218
G1 X9.42 Y161.966 E39.83013
G1 X9.466 Y161.69 E39.84409
G1 X9.618 Y161.12 E39.87352
G1 X9.87 Y160.591 E39.90275
G1 X19.217 Y147.092 E40.72191
G1 X19.664 Y146.61 E40.75471
G1 X19.93 Y146.383 E40.77215
G1 X20.463 Y145.991 E40.80516
G1 X20.785 Y145.809 E40.82361
G1 X21.389 Y145.525 E40.85691
G1 X21.703 Y145.419 E40.87345
G1 X22.315 Y145.267 E40.90491
G1 X22.739 Y145.205 E40.92629
G1 X23.329 Y145.175 E40.95576
G1 X24.264 Y145.244 E41.00253
G1 X25.493 Y145.039 E41.06469
G1 X26.953 Y144.665 E41.13989
G1 X28.376 Y144.167 E41.2151
G1 X29.751 Y143.55 E41.29029
G1 X31.069 Y142.818 E41.36551
G1 X32.321 Y141.975 E41.44081
G1 X33.493 Y141.03 E41.51592
G1 X34.583 Y139.988 E41.59115
G1 X35.579 Y138.855 E41.66641
G1 X36.474 Y137.643 E41.74158
G1 X37.262 Y136.358 E41.81678
G1 X37.938 Y135.01 E41.89202
G1 X38.497 Y133.609 E41.96727
G1 X38.934 Y132.166 E42.04249
G1 X39.245 Y130.692 E42.11765
G1 X39.43 Y129.196 E42.19285
G1 X39.485 Y127.69 E42.26804
G1 X39.413 Y126.185 E42.34321
G1 X39.212 Y124.69 E42.41847
G1 X38.885 Y123.217 E42.49374
G1 X38.431 Y121.781 E42.56888
G1 X37.858 Y120.386 E42.64412
G1 X37.169 Y119.047 E42.71925
G1 X36.366 Y117.77 E42.79451
G1 X35.457 Y116.566 E42.86977
G1 X34.449 Y115.446 E42.94495
G1 X33.348 Y114.413 E43.02027
G1 X32.236 Y113.531 E43.09108
G1 X31.985 Y113.28 E43.10879
G1 X31.793 Y112.997 E43.12585
G1 X31.39 Y112.283 E43.16675
G1 X31.306 Y112.109 E43.17639
G1 X30.876 Y111.118 E43.23029
G1 X30.792 Y110.871 E43.2433
G1 X30.48 Y109.828 E43.29762
G1 X30.429 Y109.588 E43.30986
G1 X30.249 Y108.533 E43.36325
G1 X30.225 Y108.255 E43.37717
G1 X30.176 Y107.269 E43.42643
G1 X30.185 Y106.912 E43.44424
G1 X30.26 Y105.87 E43.49636
G1 X30.299 Y105.635 E43.50825
G1 X30.51 Y104.551 E43.56334
G1 X30.557 Y104.385 E43.57195
G1 X30.913 Y103.286 E43.62958
G1 X30.997 Y103.087 E43.64036
G1 X31.468 Y102.07 E43.69628
G1 X31.566 Y101.901 E43.70602
G1 X32.132 Y100.982 E43.75987
G1 X32.28 Y100.78 E43.77236
G1 X32.948 Y99.94 E43.82591
G1 X34.245 Y98.47 E43.92371
G1 X35.358 Y97.014 E44.01514
G1 X36.361 Y95.481 E44.10654
G1 X37.254 Y93.88 E44.198
G1 X38.029 Y92.22 E44.2894
G1 X38.686 Y90.51 E44.38079
G1 X39.216 Y88.755 E44.47225
G1 X39.621 Y86.967 E44.56372
G1 X39.897 Y85.156 E44.65511
G1 X40.042 Y83.329 E44.74655
G1 X40.056 Y81.496 E44.838
G1 X39.939 Y79.668 E44.92939
G1 X39.691 Y77.853 E45.02078
G1 X39.316 Y76.059 E45.11221
G1 X38.813 Y74.296 E45.20368
G1 X38.184 Y72.575 E45.2951
G1 X37.434 Y70.902 E45.38657
G1 X36.568 Y69.288 E45.47795
G1 X35.586 Y67.741 E45.56936
G1 X34.497 Y66.266 E45.66084
